adaptive-icons/Test-Icons--V5/editing/plus-filled-12.svg

<svg height="12" viewBox="0 0 12 12" width="12" xmlns="http://www.w3.org/2000/svg"><g fill="none" fill-rule="evenodd"><path d="m6 1a5 5 0 1 0 0 10 5 5 0 0 0 0-10zm2.5 6h-1.5v1.5a1.001 1.001 0 0 1 -2 0v-1.5h-1.5a1.001 1.001 0 0 1 0-2h1.5v-1.5a1.001 1.001 0 0 1 2 0v1.5h1.5a1.001 1.001 0 0 1 0 2z" fill="#282d37" fill-rule="nonzero"/><path d="m11 6a5 5 0 1 1 -10 0 5 5 0 0 1 10 0zm-4 2.5v-1.5h1.5a1.001 1.001 0 0 0 0-2h-1.5v-1.5a1.001 1.001 0 0 0 -2 0v1.5h-1.5a1.001 1.001 0 0 0 0 2h1.5v1.5a1.001 1.001 0 0 0 2 0z" stroke="#282d37" stroke-linecap="round" stroke-width="1.25"/></g></svg>

<svg xmlns="http://www.w3.org/2000/svg" id="3" width="12" height="12" viewBox="0 0 12 12"><g fill="none" fill-rule="evenodd" class="page-1"><g class="plus"><path fill="#282D37" fill-rule="nonzero" d="M6 1a5 5 0 1 0 0 10A5 5 0 0 0 6 1Zm2.5 6H7v1.5a1.001 1.001 0 0 1-2 0V7H3.5a1.001 1.001 0 0 1 0-2H5V3.5a1.001 1.001 0 0 1 2 0V5h1.5a1.001 1.001 0 0 1 0 2Z" class="fill"/><path stroke="#282D37" stroke-linecap="round" stroke-width="1.25" d="M11 6A5 5 0 1 1 1 6a5 5 0 0 1 10 0ZM7 8.5V7h1.5a1.001 1.001 0 0 0 0-2H7V3.5a1.001 1.001 0 0 0-2 0V5H3.5a1.001 1.001 0 0 0 0 2H5v1.5a1.001 1.001 0 0 0 2 0Z" class="stroke"/></g></g></svg>
